src/assets/icons/filters/categories/bike_hover.svg

<svg width="48" height="45" viewBox="0 0 48 45" fill="none" xmlns="http://www.w3.org/2000/svg">
<path opacity="0.7" fill-rule="evenodd" clip-rule="evenodd" d="M15 35.9896C15 39.2986 12.309 41.9896 9 41.9896C5.691 41.9896 3 39.2986 3 35.9896C3 32.6806 5.691 29.9896 9 29.9896C12.309 29.9896 15 32.6806 15 35.9896" fill="#13C1AC"/>
<path opacity="0.65" fill-rule="evenodd" clip-rule="evenodd" d="M15 35.9896C15 39.2986 12.309 41.9896 9 41.9896C5.691 41.9896 3 39.2986 3 35.9896C3 32.6806 5.691 29.9896 9 29.9896C12.309 29.9896 15 32.6806 15 35.9896" fill="white"/>
<path fill-rule="evenodd" clip-rule="evenodd" d="M34.5 41.9896C28.71 41.9896 24 37.2796 24 31.4896C24 26.9821 26.8605 23.1406 30.858 21.6541L33.033 31.8046C33.1288 32.181 33.3667 32.5057 33.6968 32.7104C34.027 32.9151 34.4236 32.984 34.8034 32.9024C35.1832 32.8209 35.5166 32.5953 35.7336 32.2731C35.9505 31.9509 36.0342 31.5572 35.967 31.1746L33.792 21.0241C34.0275 21.0106 34.2615 20.9896 34.5 20.9896C40.29 20.9896 45 25.7011 45 31.4896C45 37.2796 40.29 41.9896 34.5 41.9896V41.9896ZM15 35.9896C15 39.2986 12.309 41.9896 9 41.9896C5.691 41.9896 3 39.2986 3 35.9896C3 32.6806 5.691 29.9896 9 29.9896C12.309 29.9896 15 32.6806 15 35.9896ZM34.5 17.9896C41.943 17.9896 48 24.0451 48 31.4896C48 38.9341 41.943 44.9896 34.5 44.9896C27.057 44.9896 21 38.9341 21 31.4896C21 26.2651 23.9895 21.7321 28.344 19.4896H20.25C15.3705 19.4896 11.328 22.8196 10.6215 27.1441C14.8125 27.9091 18 31.5811 18 35.9896C18 40.9546 13.9635 44.9896 9 44.9896C4.0365 44.9896 0 40.9546 0 35.9896C0 31.5076 3.297 27.7906 7.5915 27.1111C8.106 22.8901 10.959 19.3366 14.8965 17.6131C13.0515 16.3681 11.6235 14.5771 10.944 12.4456C10.8597 12.1587 10.8659 11.8528 10.962 11.5696C7.9125 11.1211 6.8145 10.4251 6.4395 10.0501C6.2846 9.92016 6.15756 9.76026 6.06602 9.58C5.97448 9.39974 5.92032 9.20284 5.9068 9.00112C5.89328 8.7994 5.92067 8.59703 5.98734 8.40616C6.05401 8.2153 6.15858 8.03988 6.29475 7.89045C6.43093 7.74102 6.59591 7.62066 6.77978 7.53661C6.96365 7.45255 7.16261 7.40653 7.36472 7.40131C7.56682 7.39609 7.7679 7.43178 7.95586 7.50623C8.14382 7.58069 8.31479 7.69237 8.4585 7.83458C8.661 7.95908 10.563 8.98958 18 8.98958C18.3978 8.98958 18.7794 9.14761 19.0607 9.42892C19.342 9.71022 19.5 10.0918 19.5 10.4896C19.5 10.8874 19.342 11.2689 19.0607 11.5502C18.7794 11.8315 18.3978 11.9896 18 11.9896C16.4505 11.9896 15.1125 11.9446 13.9425 11.8711C14.9895 14.6026 17.8245 16.4911 21 16.4911H29.751L28.533 10.8061C28.521 10.7506 28.536 10.6981 28.5315 10.6441C28.5255 10.5901 28.5 10.5436 28.5 10.4896C28.5 10.4416 28.524 10.3996 28.5285 10.3546C28.5369 10.2526 28.5571 10.1519 28.5885 10.0546C28.6145 9.96493 28.6492 9.87802 28.692 9.79508C28.7368 9.71215 28.7895 9.63378 28.8495 9.56108C29.0316 9.3326 29.2792 9.16514 29.559 9.08108C29.604 9.06608 29.6385 9.03308 29.6865 9.02258C29.739 9.01208 29.79 9.02558 29.844 9.02258C29.898 9.01658 29.9445 8.98958 30 8.98958H33C33.3862 8.9723 33.7509 8.80672 34.0181 8.5273C34.2853 8.24789 34.4344 7.87618 34.4344 7.48958C34.4344 7.10297 34.2853 6.73126 34.0181 6.45185C33.7509 6.17244 33.3862 6.00685 33 5.98958H27C26.6022 5.98958 26.2206 5.83154 25.9393 5.55024C25.658 5.26893 25.5 4.8874 25.5 4.48958C25.5 4.09175 25.658 3.71022 25.9393 3.42892C26.2206 3.14761 26.6022 2.98958 27 2.98958H33C35.481 2.98958 37.5 5.00858 37.5 7.48958C37.5 9.97058 35.481 11.9896 33 11.9896H31.8555L33.156 18.0586C33.5985 18.0151 34.047 17.9896 34.5 17.9896V17.9896ZM7.62 35.4196C7.50413 35.6926 7.47221 35.9939 7.52831 36.2851C7.58441 36.5763 7.726 36.8442 7.935 37.0546C8.22 37.3396 8.595 37.4896 9 37.4896C9.19754 37.4916 9.3935 37.4542 9.57639 37.3795C9.75928 37.3048 9.92544 37.1944 10.0651 37.0547C10.2048 36.915 10.3152 36.7489 10.3899 36.566C10.4646 36.3831 10.502 36.1871 10.5 35.9896C10.5 35.7946 10.47 35.5996 10.38 35.4196C10.305 35.2396 10.2 35.0746 10.065 34.9246C9.915 34.7896 9.765 34.6846 9.57 34.6096C9.29683 34.4947 8.99576 34.4633 8.70478 34.5194C8.4138 34.5754 8.14594 34.7164 7.935 34.9246C7.8 35.0746 7.695 35.2396 7.62 35.4196V35.4196ZM36.435 2.55458C36.3 2.40458 36.195 2.23958 36.12 2.05958C36.0428 1.87935 36.002 1.68563 36 1.48958C36 1.09958 36.165 0.709577 36.435 0.424577C36.7226 0.151959 37.1037 0 37.5 0C37.8963 0 38.2774 0.151959 38.565 0.424577C38.835 0.709577 39 1.09958 39 1.48958C39 1.68458 38.955 1.87958 38.88 2.05958C38.805 2.23958 38.7 2.40458 38.565 2.55458C38.4253 2.69427 38.2592 2.8047 38.0763 2.8794C37.8935 2.95409 37.6975 2.99155 37.5 2.98958C37.3032 2.99544 37.1078 2.95431 36.93 2.86958C36.7454 2.79917 36.577 2.692 36.435 2.55458V2.55458Z" fill="#13C1AC"/>
<path opacity="0.434" fill-rule="evenodd" clip-rule="evenodd" d="M34.5 41.9896C28.71 41.9896 24 37.2796 24 31.4896C24 26.9821 26.8605 23.1406 30.858 21.6541L33.033 31.8046C33.1288 32.181 33.3667 32.5057 33.6968 32.7104C34.027 32.9151 34.4236 32.9839 34.8034 32.9024C35.1832 32.8208 35.5166 32.5953 35.7336 32.2731C35.9505 31.9509 36.0342 31.5571 35.967 31.1746L33.792 21.0241C34.0275 21.0106 34.2615 20.9896 34.5 20.9896C40.29 20.9896 45 25.7011 45 31.4896C45 37.2796 40.29 41.9896 34.5 41.9896" fill="#13C1AC"/>
</svg>

<svg width="48" height="45" viewBox="0 0 48 45" fill="none" xmlns="http://www.w3.org/2000/svg"><path opacity=".7" fill-rule="evenodd" clip-rule="evenodd" d="M15 35.99c0 3.309-2.691 6-6 6s-6-2.691-6-6c0-3.31 2.691-6 6-6s6 2.69 6 6" fill="#13C1AC"/><path opacity=".65" fill-rule="evenodd" clip-rule="evenodd" d="M15 35.99c0 3.309-2.691 6-6 6s-6-2.691-6-6c0-3.31 2.691-6 6-6s6 2.69 6 6" fill="#fff"/><path fill-rule="evenodd" clip-rule="evenodd" d="M34.5 41.99c-5.79 0-10.5-4.71-10.5-10.5 0-4.508 2.86-8.35 6.858-9.836l2.175 10.15a1.502 1.502 0 002.934-.63l-2.175-10.15c.236-.013.47-.034.708-.034 5.79 0 10.5 4.711 10.5 10.5 0 5.79-4.71 10.5-10.5 10.5zm-19.5-6c0 3.309-2.691 6-6 6s-6-2.691-6-6c0-3.31 2.691-6 6-6s6 2.69 6 6zm19.5-18c7.443 0 13.5 6.055 13.5 13.5 0 7.444-6.057 13.5-13.5 13.5S21 38.934 21 31.49c0-5.225 2.99-9.758 7.344-12H20.25c-4.88 0-8.922 3.33-9.629 7.654C14.813 27.91 18 31.581 18 35.99c0 4.965-4.037 9-9 9s-9-4.035-9-9c0-4.482 3.297-8.2 7.591-8.879.515-4.22 3.368-7.774 7.305-9.498-1.845-1.245-3.273-3.036-3.952-5.167a1.452 1.452 0 01.018-.876c-3.05-.449-4.147-1.145-4.522-1.52a1.5 1.5 0 112.019-2.215C8.66 7.959 10.563 8.99 18 8.99a1.5 1.5 0 010 3c-1.55 0-2.887-.045-4.057-.119 1.046 2.732 3.882 4.62 7.057 4.62h8.751l-1.218-5.685c-.012-.055.003-.108-.002-.162-.005-.054-.031-.1-.031-.154 0-.048.024-.09.029-.135.008-.102.028-.203.06-.3.026-.09.06-.177.103-.26a1.45 1.45 0 01.157-.234c.183-.228.43-.396.71-.48.045-.015.08-.048.127-.058.053-.01.104.003.158 0 .054-.006.1-.033.156-.033h3a1.502 1.502 0 000-3h-6a1.5 1.5 0 010-3h6c2.481 0 4.5 2.019 4.5 4.5 0 2.48-2.019 4.5-4.5 4.5h-1.145l1.301 6.069c.443-.044.891-.07 1.344-.07zM7.62 35.42a1.493 1.493 0 00.315 1.635c.285.285.66.435 1.065.435a1.485 1.485 0 001.5-1.5c0-.195-.03-.39-.12-.57a1.732 1.732 0 00-.315-.495c-.15-.135-.3-.24-.495-.315a1.5 1.5 0 00-1.635.315c-.135.15-.24.315-.315.495zM36.435 2.555a1.732 1.732 0 01-.315-.495 1.486 1.486 0 01-.12-.57c0-.39.165-.78.435-1.065a1.548 1.548 0 012.13 0C38.835.71 39 1.1 39 1.49c0 .195-.045.39-.12.57-.075.18-.18.345-.315.495a1.485 1.485 0 01-1.065.435 1.24 1.24 0 01-.57-.12 1.46 1.46 0 01-.495-.315z" fill="#13C1AC"/><path opacity=".434" fill-rule="evenodd" clip-rule="evenodd" d="M34.5 41.99c-5.79 0-10.5-4.71-10.5-10.5 0-4.508 2.86-8.35 6.858-9.836l2.175 10.15a1.502 1.502 0 002.934-.63l-2.175-10.15c.236-.013.47-.034.708-.034 5.79 0 10.5 4.711 10.5 10.5 0 5.79-4.71 10.5-10.5 10.5" fill="#13C1AC"/></svg>
